X: 13332
M: 2/4
L: 1/16
K: A
V: 1 clef=treble middle=B
[|\
f>ec>e e>dB>d | d>cA>c B>EF>G | A>GA>G A>ce>c |
[| e>^de>d e>=dc>B | A>Bc>d e>fg>a | g>ab>a g>fe>d |
c>BA>G A>Bc>d | e>^de>d e>=dc>B | A>Bc>d e>fg>a |\
a>gf>e g>fe>^d | e^de>f e>=dc>"D.C."B |]
V: 2 clef=bass middle=d
[|\
[A2A8]a2a2a2 | [A2A8]a2a2a2 |\
[A2A4]a2[G2G4]g2 | [A2A4]a2e2z2 | [A2A8]a2a2a2 |
[A2A8]a2a2a2 | [A2A4]a2[E2E4]e2 | A2a2A2z2 H|][|\
E2e2E2e2 | A2a2A2a2 | E2e2E2e2 |

